images/28198.svg

<?xml version="1.0" encoding="UTF-8"?>
<svg xmlns="http://www.w3.org/2000/svg" xmlns:xlink="http://www.w3.org/1999/xlink" width="300pt" height="300pt" viewBox="0 0 300 300" version="1.1">
<defs>
<g>
<symbol overflow="visible" id="glyph0-0">
<path style="stroke:none;" d="M 0.640625 2.296875 L 0.640625 -9.171875 L 7.140625 -9.171875 L 7.140625 2.296875 Z M 1.375 1.578125 L 6.421875 1.578125 L 6.421875 -8.4375 L 1.375 -8.4375 Z M 1.375 1.578125 "/>
</symbol>
<symbol overflow="visible" id="glyph0-1">
<path style="stroke:none;" d="M 1.28125 -9.484375 L 6.71875 -9.484375 L 6.71875 -8.390625 L 2.5625 -8.390625 L 2.5625 -5.609375 L 6.3125 -5.609375 L 6.3125 -4.53125 L 2.5625 -4.53125 L 2.5625 0 L 1.28125 0 Z M 1.28125 -9.484375 "/>
</symbol>
<symbol overflow="visible" id="glyph0-2">
<path style="stroke:none;" d="M 1.28125 -9.484375 L 3 -9.484375 L 7.203125 -1.546875 L 7.203125 -9.484375 L 8.453125 -9.484375 L 8.453125 0 L 6.71875 0 L 2.515625 -7.921875 L 2.515625 0 L 1.28125 0 Z M 1.28125 -9.484375 "/>
</symbol>
<symbol overflow="visible" id="glyph0-3">
<path style="stroke:none;" d="M 1.28125 -9.484375 L 2.5625 -9.484375 L 2.5625 -5.59375 L 7.21875 -5.59375 L 7.21875 -9.484375 L 8.5 -9.484375 L 8.5 0 L 7.21875 0 L 7.21875 -4.515625 L 2.5625 -4.515625 L 2.5625 0 L 1.28125 0 Z M 1.28125 -9.484375 "/>
</symbol>
<symbol overflow="visible" id="glyph0-4">
<path style="stroke:none;" d="M 5.125 -8.609375 C 4.1875 -8.609375 3.441406 -8.257812 2.890625 -7.5625 C 2.347656 -6.875 2.078125 -5.929688 2.078125 -4.734375 C 2.078125 -3.535156 2.347656 -2.585938 2.890625 -1.890625 C 3.441406 -1.203125 4.1875 -0.859375 5.125 -0.859375 C 6.050781 -0.859375 6.785156 -1.203125 7.328125 -1.890625 C 7.878906 -2.585938 8.15625 -3.535156 8.15625 -4.734375 C 8.15625 -5.929688 7.878906 -6.875 7.328125 -7.5625 C 6.785156 -8.257812 6.050781 -8.609375 5.125 -8.609375 Z M 5.125 -9.65625 C 6.445312 -9.65625 7.503906 -9.207031 8.296875 -8.3125 C 9.097656 -7.414062 9.5 -6.222656 9.5 -4.734375 C 9.5 -3.234375 9.097656 -2.035156 8.296875 -1.140625 C 7.503906 -0.253906 6.445312 0.1875 5.125 0.1875 C 3.789062 0.1875 2.722656 -0.253906 1.921875 -1.140625 C 1.128906 -2.035156 0.734375 -3.234375 0.734375 -4.734375 C 0.734375 -6.222656 1.128906 -7.414062 1.921875 -8.3125 C 2.722656 -9.207031 3.789062 -9.65625 5.125 -9.65625 Z M 5.125 -9.65625 "/>
</symbol>
</g>
</defs>
<g id="surface21237">
<rect x="0" y="0" width="300" height="300" style="fill:rgb(100%,100%,100%);fill-opacity:1;stroke:none;"/>
<path style="fill:none;stroke-width:1.2;stroke-linecap:butt;stroke-linejoin:miter;stroke:rgb(20%,80%,80%);stroke-opacity:1;stroke-miterlimit:10;" d="M 69.304688 239.359375 L 68.425781 223.304688 "/>
<path style="fill:none;stroke-width:1.2;stroke-linecap:butt;stroke-linejoin:miter;stroke:rgb(0%,0%,0%);stroke-opacity:1;stroke-miterlimit:10;" d="M 68.425781 223.304688 L 67.542969 207.25 "/>
<path style=" stroke:none;fill-rule:nonzero;fill:rgb(100%,100%,100%);fill-opacity:1;" d="M 65.304688 231.359375 L 73.304688 231.359375 L 73.304688 247.359375 L 65.304688 247.359375 Z M 65.304688 231.359375 "/>
<g style="fill:rgb(20%,80%,80%);fill-opacity:1;">
  <use xlink:href="#glyph0-1" x="65.304688" y="243.735352"/>
</g>
<path style="fill:none;stroke-width:1.2;stroke-linecap:butt;stroke-linejoin:miter;stroke:rgb(0%,0%,0%);stroke-opacity:1;stroke-miterlimit:10;" d="M 67.542969 207.25 L 38.859375 192.722656 "/>
<path style="fill:none;stroke-width:1.2;stroke-linecap:butt;stroke-linejoin:miter;stroke:rgb(0%,0%,0%);stroke-opacity:1;stroke-miterlimit:10;" d="M 68.09375 199.046875 L 45.144531 187.425781 "/>
<path style="fill:none;stroke-width:1.2;stroke-linecap:butt;stroke-linejoin:miter;stroke:rgb(0%,0%,0%);stroke-opacity:1;stroke-miterlimit:10;" d="M 94.46875 189.671875 L 67.542969 207.25 "/>
<path style="fill:none;stroke-width:1.2;stroke-linecap:butt;stroke-linejoin:miter;stroke:rgb(0%,0%,0%);stroke-opacity:1;stroke-miterlimit:10;" d="M 38.859375 192.722656 L 37.097656 160.617188 "/>
<path style="fill:none;stroke-width:1.2;stroke-linecap:butt;stroke-linejoin:miter;stroke:rgb(0%,0%,0%);stroke-opacity:1;stroke-miterlimit:10;" d="M 37.097656 160.617188 L 64.023438 143.039062 "/>
<path style="fill:none;stroke-width:1.2;stroke-linecap:butt;stroke-linejoin:miter;stroke:rgb(0%,0%,0%);stroke-opacity:1;stroke-miterlimit:10;" d="M 43.925781 165.195312 L 65.464844 151.128906 "/>
<path style="fill:none;stroke-width:1.2;stroke-linecap:butt;stroke-linejoin:miter;stroke:rgb(0%,0%,0%);stroke-opacity:1;stroke-miterlimit:10;" d="M 64.023438 143.039062 L 92.707031 157.566406 "/>
<path style="fill:none;stroke-width:1.2;stroke-linecap:butt;stroke-linejoin:miter;stroke:rgb(0%,0%,0%);stroke-opacity:1;stroke-miterlimit:10;" d="M 64.023438 143.039062 L 62.261719 110.929688 "/>
<path style="fill:none;stroke-width:1.2;stroke-linecap:butt;stroke-linejoin:miter;stroke:rgb(0%,0%,0%);stroke-opacity:1;stroke-miterlimit:10;" d="M 92.707031 157.566406 L 94.46875 189.671875 "/>
<path style="fill:none;stroke-width:1.2;stroke-linecap:butt;stroke-linejoin:miter;stroke:rgb(0%,0%,0%);stroke-opacity:1;stroke-miterlimit:10;" d="M 85.328125 161.191406 L 86.738281 186.875 "/>
<path style="fill:none;stroke-width:1.2;stroke-linecap:butt;stroke-linejoin:miter;stroke:rgb(0%,0%,0%);stroke-opacity:1;stroke-miterlimit:10;" d="M 62.261719 110.929688 L 48.753906 102.207031 "/>
<path style="fill:none;stroke-width:1.2;stroke-linecap:butt;stroke-linejoin:miter;stroke:rgb(0%,0%,100%);stroke-opacity:1;stroke-miterlimit:10;" d="M 48.753906 102.207031 L 35.25 93.484375 "/>
<path style="fill:none;stroke-width:1.2;stroke-linecap:butt;stroke-linejoin:miter;stroke:rgb(0%,0%,0%);stroke-opacity:1;stroke-miterlimit:10;" d="M 87.199219 90.632812 L 62.261719 110.929688 "/>
<path style="fill:none;stroke-width:1.2;stroke-linecap:butt;stroke-linejoin:miter;stroke:rgb(0%,0%,0%);stroke-opacity:1;stroke-miterlimit:10;" d="M 79.929688 86.796875 L 59.980469 103.03125 "/>
<path style="fill:none;stroke-width:1.2;stroke-linecap:butt;stroke-linejoin:miter;stroke:rgb(0%,0%,100%);stroke-opacity:1;stroke-miterlimit:10;" d="M 35.25 93.484375 L 39.375 77.945312 "/>
<path style="fill:none;stroke-width:1.2;stroke-linecap:butt;stroke-linejoin:miter;stroke:rgb(0%,0%,0%);stroke-opacity:1;stroke-miterlimit:10;" d="M 39.375 77.945312 L 43.496094 62.402344 "/>
<path style=" stroke:none;fill-rule:nonzero;fill:rgb(100%,100%,100%);fill-opacity:1;" d="M 25.25 85.484375 L 45.25 85.484375 L 45.25 101.484375 L 25.25 101.484375 Z M 25.25 85.484375 "/>
<g style="fill:rgb(0%,0%,100%);fill-opacity:1;">
  <use xlink:href="#glyph0-2" x="25.25" y="97.860352"/>
  <use xlink:href="#glyph0-3" x="35.219727" y="97.860352"/>
</g>
<path style="fill:none;stroke-width:1.2;stroke-linecap:butt;stroke-linejoin:miter;stroke:rgb(0%,0%,0%);stroke-opacity:1;stroke-miterlimit:10;" d="M 43.496094 62.402344 L 59.550781 61.523438 "/>
<path style="fill:none;stroke-width:1.2;stroke-linecap:butt;stroke-linejoin:miter;stroke:rgb(0%,0%,100%);stroke-opacity:1;stroke-miterlimit:10;" d="M 59.550781 61.523438 L 75.601562 60.640625 "/>
<path style="fill:none;stroke-width:1.2;stroke-linecap:butt;stroke-linejoin:miter;stroke:rgb(0%,0%,0%);stroke-opacity:1;stroke-miterlimit:10;" d="M 47.121094 69.78125 L 59.964844 69.078125 "/>
<path style="fill:none;stroke-width:1.2;stroke-linecap:butt;stroke-linejoin:miter;stroke:rgb(0%,0%,100%);stroke-opacity:1;stroke-miterlimit:10;" d="M 59.964844 69.078125 L 72.808594 68.375 "/>
<path style="fill:none;stroke-width:1.2;stroke-linecap:butt;stroke-linejoin:miter;stroke:rgb(0%,0%,100%);stroke-opacity:1;stroke-miterlimit:10;" d="M 75.601562 60.640625 L 81.402344 75.636719 "/>
<path style="fill:none;stroke-width:1.2;stroke-linecap:butt;stroke-linejoin:miter;stroke:rgb(0%,0%,0%);stroke-opacity:1;stroke-miterlimit:10;" d="M 81.402344 75.636719 L 87.199219 90.632812 "/>
<path style=" stroke:none;fill-rule:nonzero;fill:rgb(100%,100%,100%);fill-opacity:1;" d="M 70.601562 52.640625 L 80.601562 52.640625 L 80.601562 68.640625 L 70.601562 68.640625 Z M 70.601562 52.640625 "/>
<g style="fill:rgb(0%,0%,100%);fill-opacity:1;">
  <use xlink:href="#glyph0-2" x="70.601562" y="65.016602"/>
</g>
<path style="fill:none;stroke-width:1.2;stroke-linecap:butt;stroke-linejoin:miter;stroke:rgb(0%,0%,0%);stroke-opacity:1;stroke-miterlimit:10;" d="M 87.199219 90.632812 L 118.28125 98.878906 "/>
<path style="fill:none;stroke-width:1.2;stroke-linecap:butt;stroke-linejoin:miter;stroke:rgb(0%,0%,0%);stroke-opacity:1;stroke-miterlimit:10;" d="M 118.28125 98.878906 L 126.679688 129.917969 "/>
<path style="fill:none;stroke-width:1.2;stroke-linecap:butt;stroke-linejoin:miter;stroke:rgb(0%,0%,0%);stroke-opacity:1;stroke-miterlimit:10;" d="M 126.421875 100.007812 L 133.140625 124.839844 "/>
<path style="fill:none;stroke-width:1.2;stroke-linecap:butt;stroke-linejoin:miter;stroke:rgb(0%,0%,0%);stroke-opacity:1;stroke-miterlimit:10;" d="M 140.960938 76.085938 L 118.28125 98.878906 "/>
<path style="fill:none;stroke-width:1.2;stroke-linecap:butt;stroke-linejoin:miter;stroke:rgb(0%,0%,0%);stroke-opacity:1;stroke-miterlimit:10;" d="M 126.679688 129.917969 L 157.757812 138.164062 "/>
<path style="fill:none;stroke-width:1.2;stroke-linecap:butt;stroke-linejoin:miter;stroke:rgb(0%,0%,0%);stroke-opacity:1;stroke-miterlimit:10;" d="M 157.757812 138.164062 L 165.09375 152.472656 "/>
<path style="fill:none;stroke-width:1.2;stroke-linecap:butt;stroke-linejoin:miter;stroke:rgb(0%,0%,100%);stroke-opacity:1;stroke-miterlimit:10;" d="M 165.09375 152.472656 L 172.425781 166.78125 "/>
<path style="fill:none;stroke-width:1.2;stroke-linecap:butt;stroke-linejoin:miter;stroke:rgb(0%,0%,0%);stroke-opacity:1;stroke-miterlimit:10;" d="M 180.4375 115.371094 L 157.757812 138.164062 "/>
<path style="fill:none;stroke-width:1.2;stroke-linecap:butt;stroke-linejoin:miter;stroke:rgb(0%,0%,0%);stroke-opacity:1;stroke-miterlimit:10;" d="M 172.808594 112.316406 L 154.664062 130.546875 "/>
<path style="fill:none;stroke-width:1.2;stroke-linecap:butt;stroke-linejoin:miter;stroke:rgb(0%,0%,100%);stroke-opacity:1;stroke-miterlimit:10;" d="M 172.425781 166.78125 L 165.160156 181.121094 "/>
<path style="fill:none;stroke-width:1.2;stroke-linecap:butt;stroke-linejoin:miter;stroke:rgb(0%,0%,0%);stroke-opacity:1;stroke-miterlimit:10;" d="M 165.160156 181.121094 L 157.898438 195.464844 "/>
<path style="fill:none;stroke-width:1.2;stroke-linecap:butt;stroke-linejoin:miter;stroke:rgb(0%,0%,100%);stroke-opacity:1;stroke-miterlimit:10;" d="M 172.425781 166.78125 L 188.300781 164.226562 "/>
<path style="fill:none;stroke-width:1.2;stroke-linecap:butt;stroke-linejoin:miter;stroke:rgb(0%,0%,0%);stroke-opacity:1;stroke-miterlimit:10;" d="M 188.300781 164.226562 L 204.171875 161.671875 "/>
<path style=" stroke:none;fill-rule:nonzero;fill:rgb(100%,100%,100%);fill-opacity:1;" d="M 167.425781 158.78125 L 177.425781 158.78125 L 177.425781 174.78125 L 167.425781 174.78125 Z M 167.425781 158.78125 "/>
<g style="fill:rgb(0%,0%,100%);fill-opacity:1;">
  <use xlink:href="#glyph0-2" x="167.425781" y="171.157227"/>
</g>
<path style="fill:none;stroke-width:1.2;stroke-linecap:butt;stroke-linejoin:miter;stroke:rgb(0%,0%,0%);stroke-opacity:1;stroke-miterlimit:10;" d="M 157.898438 195.464844 L 125.792969 197.226562 "/>
<path style="fill:none;stroke-width:1.2;stroke-linecap:butt;stroke-linejoin:miter;stroke:rgb(0%,0%,0%);stroke-opacity:1;stroke-miterlimit:10;" d="M 201.503906 164.351562 L 212.902344 175.695312 "/>
<path style="fill:none;stroke-width:1.2;stroke-linecap:butt;stroke-linejoin:miter;stroke:rgb(100%,0%,0%);stroke-opacity:1;stroke-miterlimit:10;" d="M 212.902344 175.695312 L 224.296875 187.035156 "/>
<path style="fill:none;stroke-width:1.2;stroke-linecap:butt;stroke-linejoin:miter;stroke:rgb(0%,0%,0%);stroke-opacity:1;stroke-miterlimit:10;" d="M 206.839844 158.988281 L 218.238281 170.332031 "/>
<path style="fill:none;stroke-width:1.2;stroke-linecap:butt;stroke-linejoin:miter;stroke:rgb(100%,0%,0%);stroke-opacity:1;stroke-miterlimit:10;" d="M 218.238281 170.332031 L 229.632812 181.671875 "/>
<path style="fill:none;stroke-width:1.2;stroke-linecap:butt;stroke-linejoin:miter;stroke:rgb(0%,0%,0%);stroke-opacity:1;stroke-miterlimit:10;" d="M 204.171875 161.671875 L 206.648438 145.785156 "/>
<path style="fill:none;stroke-width:1.2;stroke-linecap:butt;stroke-linejoin:miter;stroke:rgb(0%,0%,100%);stroke-opacity:1;stroke-miterlimit:10;" d="M 206.648438 145.785156 L 209.125 129.898438 "/>
<path style=" stroke:none;fill-rule:nonzero;fill:rgb(100%,100%,100%);fill-opacity:1;" d="M 221.964844 176.351562 L 232.964844 176.351562 L 232.964844 192.351562 L 221.964844 192.351562 Z M 221.964844 176.351562 "/>
<g style="fill:rgb(100%,0%,0%);fill-opacity:1;">
  <use xlink:href="#glyph0-4" x="221.964844" y="188.727539"/>
</g>
<path style="fill:none;stroke-width:1.2;stroke-linecap:butt;stroke-linejoin:miter;stroke:rgb(0%,0%,100%);stroke-opacity:1;stroke-miterlimit:10;" d="M 209.125 129.898438 L 194.78125 122.636719 "/>
<path style="fill:none;stroke-width:1.2;stroke-linecap:butt;stroke-linejoin:miter;stroke:rgb(0%,0%,0%);stroke-opacity:1;stroke-miterlimit:10;" d="M 194.78125 122.636719 L 180.4375 115.371094 "/>
<path style="fill:none;stroke-width:1.2;stroke-linecap:butt;stroke-linejoin:miter;stroke:rgb(0%,0%,100%);stroke-opacity:1;stroke-miterlimit:10;" d="M 209.125 129.898438 L 223.433594 122.566406 "/>
<path style="fill:none;stroke-width:1.2;stroke-linecap:butt;stroke-linejoin:miter;stroke:rgb(0%,0%,0%);stroke-opacity:1;stroke-miterlimit:10;" d="M 223.433594 122.566406 L 237.738281 115.230469 "/>
<path style=" stroke:none;fill-rule:nonzero;fill:rgb(100%,100%,100%);fill-opacity:1;" d="M 204.125 121.898438 L 214.125 121.898438 L 214.125 137.898438 L 204.125 137.898438 Z M 204.125 121.898438 "/>
<g style="fill:rgb(0%,0%,100%);fill-opacity:1;">
  <use xlink:href="#glyph0-2" x="204.125" y="134.274414"/>
</g>
<path style="fill:none;stroke-width:1.2;stroke-linecap:butt;stroke-linejoin:miter;stroke:rgb(0%,0%,0%);stroke-opacity:1;stroke-miterlimit:10;" d="M 180.4375 115.371094 L 172.039062 84.332031 "/>
<path style="fill:none;stroke-width:1.2;stroke-linecap:butt;stroke-linejoin:miter;stroke:rgb(0%,0%,0%);stroke-opacity:1;stroke-miterlimit:10;" d="M 172.039062 84.332031 L 140.960938 76.085938 "/>
<path style="fill:none;stroke-width:1.2;stroke-linecap:butt;stroke-linejoin:miter;stroke:rgb(0%,0%,0%);stroke-opacity:1;stroke-miterlimit:10;" d="M 166.992188 90.820312 L 142.128906 84.222656 "/>
<path style="fill:none;stroke-width:1.2;stroke-linecap:butt;stroke-linejoin:miter;stroke:rgb(0%,0%,0%);stroke-opacity:1;stroke-miterlimit:10;" d="M 237.738281 115.230469 L 264.75 132.679688 "/>
</g>
</svg>

<svg xmlns="http://www.w3.org/2000/svg" xmlns:xlink="http://www.w3.org/1999/xlink" width="300pt" height="300pt" viewBox="0 0 300 300"><defs><symbol overflow="visible"><path d="M.64 2.297v-11.47h6.5v11.47zm.735-.72h5.047V-8.436H1.375zm0 0"/></symbol><symbol overflow="visible" id="a"><path d="M1.28-9.484h5.44v1.093H2.562v2.78h3.75v1.08h-3.75V0H1.28zm0 0"/></symbol><symbol overflow="visible" id="b"><path d="M1.28-9.484H3l4.203 7.937v-7.937h1.25V0H6.72L2.515-7.922V0H1.28zm0 0"/></symbol><symbol overflow="visible" id="c"><path d="M1.28-9.484h1.282v3.89H7.22v-3.89H8.5V0H7.22v-4.516H2.562V0H1.28zm0 0"/></symbol><symbol overflow="visible" id="d"><path d="M5.125-8.61c-.938 0-1.684.352-2.234 1.047-.542.688-.812 1.633-.812 2.83 0 1.198.27 2.147.813 2.842.55.687 1.297 1.03 2.235 1.03.926 0 1.66-.343 2.203-1.03.55-.696.828-1.645.828-2.844 0-1.196-.277-2.14-.828-2.829-.543-.695-1.277-1.046-2.203-1.046zm0-1.046c1.32 0 2.38.45 3.172 1.344.8.898 1.203 2.09 1.203 3.578 0 1.5-.402 2.7-1.203 3.593C7.504-.255 6.445.186 5.125.186c-1.336 0-2.402-.44-3.203-1.328C1.13-2.036.734-3.235.734-4.735c0-1.49.395-2.68 1.188-3.579.8-.894 1.867-1.343 3.203-1.343zm0 0"/></symbol></defs><g><path fill="#fff" d="M0 0h300v300H0z"/><path d="M69.305 239.36l-.88-16.055" stroke-width="1.2" stroke="#3cc" stroke-miterlimit="10" fill="none"/><path d="M68.426 223.305l-.883-16.055" stroke-width="1.2" stroke="#000" stroke-miterlimit="10" fill="none"/><path d="M65.305 231.36h8v16h-8zm0 0" fill="#fff"/><use xlink:href="#a" x="65.305" y="243.735" fill="#3cc"/><path d="M67.543 207.25L38.86 192.723M68.094 199.047l-22.95-11.62M94.47 189.672L67.542 207.25M38.86 192.723l-1.762-32.106M37.098 160.617l26.925-17.578M43.926 165.195l21.54-14.066M64.023 143.04l28.684 14.526M64.023 143.04l-1.76-32.11M92.707 157.566l1.762 32.106M85.328 161.19l1.41 25.685M62.262 110.93l-13.508-8.723" stroke-width="1.2" stroke="#000" stroke-miterlimit="10" fill="none"/><path d="M48.754 102.207L35.25 93.484" stroke-width="1.2" stroke="#00f" stroke-miterlimit="10" fill="none"/><path d="M87.2 90.633L62.26 110.93M79.93 86.797L59.98 103.03" stroke-width="1.2" stroke="#000" stroke-miterlimit="10" fill="none"/><path d="M35.25 93.484l4.125-15.54" stroke-width="1.2" stroke="#00f" stroke-miterlimit="10" fill="none"/><path d="M39.375 77.945l4.12-15.543" stroke-width="1.2" stroke="#000" stroke-miterlimit="10" fill="none"/><path d="M25.25 85.484h20v16h-20zm0 0" fill="#fff"/><g fill="#00f"><use xlink:href="#b" x="25.25" y="97.86"/><use xlink:href="#c" x="35.22" y="97.86"/></g><path d="M43.496 62.402l16.055-.88" stroke-width="1.2" stroke="#000" stroke-miterlimit="10" fill="none"/><path d="M59.55 61.523l16.052-.882" stroke-width="1.2" stroke="#00f" stroke-miterlimit="10" fill="none"/><path d="M47.12 69.78l12.845-.702" stroke-width="1.2" stroke="#000" stroke-miterlimit="10" fill="none"/><path d="M59.965 69.078l12.844-.703M75.602 60.64l5.8 14.997" stroke-width="1.2" stroke="#00f" stroke-miterlimit="10" fill="none"/><path d="M81.402 75.637L87.2 90.633" stroke-width="1.2" stroke="#000" stroke-miterlimit="10" fill="none"/><path d="M70.602 52.64h10v16h-10zm0 0" fill="#fff"/><use xlink:href="#b" x="70.602" y="65.017" fill="#00f"/><path d="M87.2 90.633l31.08 8.246M118.28 98.88l8.4 31.038M126.422 100.008l6.72 24.832M140.96 76.086L118.28 98.88M126.68 129.918l31.078 8.246M157.758 138.164l7.336 14.31" stroke-width="1.2" stroke="#000" stroke-miterlimit="10" fill="none"/><path d="M165.094 152.473l7.332 14.308" stroke-width="1.2" stroke="#00f" stroke-miterlimit="10" fill="none"/><path d="M180.438 115.37l-22.68 22.794M172.81 112.316l-18.146 18.23" stroke-width="1.2" stroke="#000" stroke-miterlimit="10" fill="none"/><path d="M172.426 166.78l-7.266 14.34" stroke-width="1.2" stroke="#00f" stroke-miterlimit="10" fill="none"/><path d="M165.16 181.12l-7.262 14.345" stroke-width="1.2" stroke="#000" stroke-miterlimit="10" fill="none"/><path d="M172.426 166.78l15.875-2.553" stroke-width="1.2" stroke="#00f" stroke-miterlimit="10" fill="none"/><path d="M188.3 164.227l15.872-2.555" stroke-width="1.2" stroke="#000" stroke-miterlimit="10" fill="none"/><path d="M167.426 158.78h10v16h-10zm0 0" fill="#fff"/><use xlink:href="#b" x="167.426" y="171.157" fill="#00f"/><path d="M157.898 195.465l-32.105 1.762M201.504 164.352l11.398 11.343" stroke-width="1.2" stroke="#000" stroke-miterlimit="10" fill="none"/><path d="M212.902 175.695l11.395 11.34" stroke-width="1.2" stroke="#f00" stroke-miterlimit="10" fill="none"/><path d="M206.84 158.988l11.398 11.344" stroke-width="1.2" stroke="#000" stroke-miterlimit="10" fill="none"/><path d="M218.238 170.332l11.395 11.34" stroke-width="1.2" stroke="#f00" stroke-miterlimit="10" fill="none"/><path d="M204.172 161.672l2.476-15.887" stroke-width="1.2" stroke="#000" stroke-miterlimit="10" fill="none"/><path d="M206.648 145.785l2.477-15.887" stroke-width="1.2" stroke="#00f" stroke-miterlimit="10" fill="none"/><path d="M221.965 176.352h11v16h-11zm0 0" fill="#fff"/><use xlink:href="#d" x="221.965" y="188.728" fill="#f00"/><path d="M209.125 129.898l-14.344-7.26" stroke-width="1.2" stroke="#00f" stroke-miterlimit="10" fill="none"/><path d="M194.78 122.637l-14.343-7.266" stroke-width="1.2" stroke="#000" stroke-miterlimit="10" fill="none"/><path d="M209.125 129.898l14.31-7.332" stroke-width="1.2" stroke="#00f" stroke-miterlimit="10" fill="none"/><path d="M223.434 122.566l14.304-7.336" stroke-width="1.2" stroke="#000" stroke-miterlimit="10" fill="none"/><path d="M204.125 121.898h10v16h-10zm0 0" fill="#fff"/><use xlink:href="#b" x="204.125" y="134.274" fill="#00f"/><path d="M180.438 115.37l-8.4-31.038M172.04 84.332l-31.08-8.246M166.992 90.82l-24.863-6.597M237.738 115.23l27.012 17.45" stroke-width="1.2" stroke="#000" stroke-miterlimit="10" fill="none"/></g></svg>
